X: 12336
T: Falcon On The Hedge, The
R: jig
M: 6/8
K: Dmajor
F2 E DFA|B2 A A2 d|BAA dAA|(3Bcd B BAG|F2 E DFA|
B2 A A2 z|1 Bcd ecA|ded dAG:|2 Bcd e2 ^d|e3 e2 d||
efg B2 A|efg a2 g|efg B2 A|ded dBA|
efg B2 A|efg a2 z|age edB|e3 e2 d|
efg B2 A|efg a2 g|efg B2 A|aeg fed|
efg B2 A|efg a2 z|age edB|A3 A3||

